X:1
T:Robots!!!
T:Robots!!!
T:From Team Fortress 2
T:G. J.
C:G. J.
%%score 1 2 3
L:1/8
Q:1/4=240
M:4/4
K:Bb
V:1 bass nm="Tuba" snm="Tba."
V:2 treble transpose=-2 nm="B♭ Trumpet" snm="B♭ Tpt."
V:3 treble transpose=-14 nm="Tenor Saxophone" snm="T. Sax."
V:1
!ff! A,,,8- | A,,,8- | A,,,8- | A,,,8 | z8 | z8 | z8 | z2 D,,2 F,,2 E,,2 | ^F,,2 z2 z4 | z8 | z8 | %11
 z8 | z8 | z8 | z8 | z8 | D,,2 F,,2 E,,2 ^F,,2 | z8 | z8 | z8 | z8 | z8 | D,,2 F,,2 E,,2 ^F,,2 | %23
 z8 | z8 | z8 | D,,2 F,,2 E,,2 ^F,,2 | D,,2 F,,2 E,,2 ^F,,2 | D,,2 F,,2 E,,2 ^F,,2 | %29
 =E,,2 G,,2 _E,,2 ^F,,2 | D,,2 F,,2 E,,2 ^F,,2 | =E,,2 G,,2 _E,,2 ^F,,2 | D,,2 F,,2 E,,2 ^F,,2 | %33
 =E,,2 G,,2 _E,,2 ^F,,2 | D,, z D,, z F,, z F,, z | E,, z E,, z ^F,, z F,, z | %36
 =E,, z E,, z G,, z G,, z | E,, z E,, z ^F,, z F,, z | D,, z D,, z F,, z F,, z | %39
 E,, z E,, z ^F,, z F,, z | =E,, z E,, z G,, z G,, z | E,, z E,, z ^F,, z F,, z | %42
 D,, z D,, z F,, z F,, z | E,, z E,, z ^F,, z F,, z | =E,, z E,, z G,, z G,, z | %45
 E,, z E,, z ^F,, z F,, z | D,, z D,, z F,, z F,, z | E,, z E,, z ^F,, z F,, z | %48
 =E,, z E,, z G,, z G,, z | E,, z E,, z ^F,, z F,, z | D,, z D,, z F,, z F,, z | %51
 E,, z E,, z ^F,, z F,, z | =E,, z E,, z G,, z G,, z | E,, z E,, z ^F,, z F,, z | %54
 D,, z D,, z F,, z F,, z | E,, z E,, z ^F,, z F,, z | =E,, z E,, z G,, z G,, z | %57
 E,, z E,, z ^F,, z F,, z | D,, z D,, z F,, z F,, z | E,, z E,, z ^F,, z F,, z | %60
 =E,, z E,, z G,, z G,, z | E,, z E,, z ^F,, z F,, z | D,, z D,, z F,, z F,, z | %63
 E,, z E,, z ^F,, z F,, z | =E,, z E,, z G,, z G,, z | E,, z E,, z ^F,, z F,, z || %66
[Q:1/4=144]"^Allegro" =B,,8- | B,,8 | =B,,_B,,A,,G,, =E,,2 E,,G,,- | G,,G,,=E,,E,, z4 | z8 |] %71
V:2
 z8 | z8 | z8 | z8 | z8 |!mp! ^FA B3/2 z/ F4- | F6 G2- | G2 z2 z4 | z8 | z8 | z8 | %11
!mp! GA B3/2 z/ ^F4- | F6 A2- | A6 F2- | F6 z2 | z8 | z8 | ^F8 | A8 | F8 | G8 | ^F8 | A8 | ^A8 | %24
 F8 | ^D8 | z8 | z8 | z8 | z8 | z8 | z8 | z8 | z8 | ^c z c z =e z e z | _d z _d z ^e z e z | %36
 d z d z ^f z f z | _d z _d z ^e z e z | ^c z ^c z =e z e z | _d z _d z ^e z e z | %40
 d z d z ^f z f z | _d z _d z ^e z e z | ^c z ^c z =e z e z | _d z _d z ^e z e z | %44
 d z d z ^f z f z | _d z _d z ^e z e z | ^c z ^c z =e z e z | _d z _d z ^e z e z | %48
 d z d z ^f z f z | _d z _d z ^e z e z | ^c z ^c z =e z e z | _d z _d z ^e z e z | %52
 d z d z ^f z f z | _d z _d z ^e z e z | ^c z ^c z =e z e z | _d z _d z ^e z e z | %56
 d z d z ^f z f z | _d z _d z ^e z e z | ^c z ^c z =e z e z | _d z _d z ^e z e z | %60
 d z d z ^f z f z | _d z _d z ^e z e z | ^c z ^c z =e z e z | _d z _d z ^e z e z | %64
 d z d z ^f z f z | _d z _d z ^e z e z || =B8- | B8 | z8 | z8 | z8 |] %71
V:3
 z8 | z8 | z8 | z8 | z8 |!ff! ^fa b3/2 z/ f4- | f6 g2- | g2 z2 z4 | z8 | z8 | z8 | %11
!ff! ga b3/2 z/ ^f4- | f6 a2- | a6 f2- | f6 z2 | z8 | z8 | ^F8 | A8 | F8 | G8 | ^F8 | A8 | ^A8 | %24
 F8 | ^D8 | z8 | z8 | z8 | z8 | z8 | z8 | z8 | z8 | z8 | z8 | z8 | z8 | z8 | z8 | z8 | z4 g^f=e z | %42
 =b8- | b6 g2- | g4 z4 | z4 g^f=e z | =b8- | b6 c'2 | g6 ^f2- | f2 z2 g^f=e z | =b8- | b6 g2- | %52
 g4 z4 | z4 g^f=e z | =b8- | b6 c'2 | g6 ^f2- | f2 z2 g^f=e z | =b8- | b8 | z8 | z4 g^f=e z | %62
 =b8- | b8 | z8 | z8 || =B8- | B8 | z8 | z8 | z8 |] %71

